dist/assets/images/icons/fb.svg

<svg width="16" height="16" viewBox="0 0 16 16" fill="none" xmlns="http://www.w3.org/2000/svg">
<path d="M9.63437 15.8906C9.55625 15.8938 9.50625 15.9 9.45625 15.9C8.3875 15.9 7.32187 15.8969 6.25312 15.9031C6.10312 15.9031 6.0625 15.8625 6.0625 15.7125C6.06562 13.225 6.06562 10.7344 6.06562 8.24688C6.06562 8.18126 6.06562 8.11563 6.06562 8.03126C5.48438 8.03126 4.91875 8.03126 4.34375 8.03126C4.34375 7.14376 4.34375 6.27188 4.34375 5.37501C4.40312 5.37501 4.45937 5.37501 4.5125 5.37501C4.98125 5.37501 5.45 5.37188 5.91875 5.37813C6.0375 5.37813 6.06875 5.34376 6.06875 5.22813C6.0625 4.53126 6.0625 3.83126 6.06875 3.13438C6.07187 2.64688 6.15 2.17188 6.375 1.73126C6.69687 1.10938 7.20625 0.706258 7.85 0.456258C8.375 0.250008 8.92812 0.175008 9.48437 0.165633C10.3906 0.153133 11.2969 0.159383 12.2031 0.156258C12.2875 0.156258 12.3562 0.153133 12.3562 0.271883C12.3531 1.13126 12.3531 1.99063 12.3531 2.85001C12.3531 2.85938 12.35 2.86876 12.3375 2.90938C12.2844 2.90938 12.225 2.90938 12.1656 2.90938C11.6031 2.90938 11.0406 2.90626 10.4781 2.90938C10.1531 2.90938 9.89062 3.04063 9.725 3.32501C9.675 3.40938 9.64375 3.51876 9.64375 3.61876C9.63437 4.15001 9.64375 4.68126 9.6375 5.21251C9.6375 5.33751 9.675 5.37188 9.79687 5.37188C10.5781 5.36563 11.3594 5.36876 12.1406 5.36876C12.2031 5.36876 12.2625 5.36876 12.3687 5.36876C12.2594 6.26251 12.1531 7.13751 12.0437 8.02188C11.2312 8.02188 10.4406 8.02188 9.63437 8.02188C9.63437 10.65 9.63437 13.2625 9.63437 15.8906Z" fill="white"/>
</svg>

<svg width="16" height="16" fill="none" xmlns="http://www.w3.org/2000/svg"><path d="M9.634 15.89c-.078.004-.128.01-.178.01-1.069 0-2.134-.003-3.203.003-.15 0-.19-.04-.19-.19.003-2.488.003-4.979.003-7.466V8.03H4.344V5.375h.168c.47 0 .938-.003 1.407.003.119 0 .15-.034.15-.15-.006-.697-.006-1.397 0-2.094.003-.487.081-.962.306-1.403C6.697 1.11 7.206.706 7.85.456 8.375.25 8.928.175 9.484.166c.907-.013 1.813-.007 2.72-.01.083 0 .152-.003.152.116-.003.86-.003 1.719-.003 2.578 0 .01-.003.019-.015.06h-.172c-.563 0-1.125-.004-1.688 0-.325 0-.587.13-.753.415a.601.601 0 00-.081.294c-.01.531 0 1.062-.007 1.594 0 .125.038.159.16.159.781-.006 1.562-.003 2.344-.003h.228l-.325 2.653h-2.41v7.869z" fill="#fff"/></svg>
